X:1
T:Ah, gentle Jesu
T:Sheringham (c. 1500)
T:Ah, gentle Jesu
T:(from the Fayrfax manuscripts)
T:Edición: Byrt Janssen (Granada, junio 2009) 
T:Edición: Byrt Janssen (Granada, junio 2009) 
T:Edición: Byrt Janssen (Granada, junio 2009) 
T:Edición: Byrt Janssen (Granada, junio 2009) 
C:Sheringham (c. 1500)
Z:Edición: Byrt Janssen (Granada, junio 2009)
%%score [ 1 2 3 4 ]
L:1/8
M:4/4
K:F
V:1 treble nm="SOPRANO" snm="S."
V:2 treble-8 transpose=-12 nm="TENOR" snm="T."
V:3 treble-8 transpose=-12 nm="TENOR" snm="T."
V:4 bass nm="BAJO" snm="B."
V:1
"^BURDEN" z4 B4 | A2 A2 G4 | !fermata!^F8 || z8 | z8 | A4 B4 | c4 d4 | z2 G2 A2 A2 | G2 z2 z4 | %9
w: Ah,|gen- tle Je-|su.|||I, a|sin- ner,|that oft doth|fall.|
w: |||||||||
 z2 B2 A3 G | c3 B A2 ^F2 | G2 z2 z4 | z2 D2 F2 E2 | A2 F2 G2 A2 | z8 | z8 | z8 | z8 | z4 F3 F | %19
w: Mer- cy, _|Lord, of thee I|crave.|Yea, my Ma-|ker I call thee.|||||Ah, I|
w: ||||||||||
 FF F2 B4- | B4 A3 G/F/ | G4 ^F4 | !fermata!G8 |:"^Verses 1 & 2" z8 | z8 | z8 | (A2 A)A A2 B2 | %27
w: will, I will, gen-|* tle _ _|Je- *|su.||||1.Suf- * fered death to|
w: |||||||2.Look on them well and|
 A2 G2 ^F2 GF | G4 A2 A2- | A2 B2 G2 d2 | c3 B A2 A2 | G2 z2 z4 | z8 | z4 z2 d2 | (c2 c)c B2 G2 | %35
w: pay thy ran- * *|som; For- sake|_ thy sin, man,|for the love of|me.||To|con- * trite hearts I|
w: have com- pas- si- *|on; The crown|_ of thorn, the|spear, the nai- les|three,||My|heart ri- ven for thy|
 F2 A2 G2 c2 | B2 c/B/ A/G/ A4 | z8 | D2 D2 G2 F2 | C2 DD F2 FF | A2 B2 G2 EE | A3 F F4 | %42
w: do re- mis- si-|* * * * * on;||for I m not|ven- gea- ble; Gain ghost- ly|en'- mies think on my|pas- si- on;|
w: re- demp- ti- *|on. _ _ _ _ _||in this thing be|trea- ta- ble: Love for love|by just con- ven- ti-|on; _ _|
 B2 A2 G2 ^F2 | G2 z2 z4 | z8 | B8 | A2 A2 G4 | !fermata!^F8 :| %48
w: Why art thou fro-|ward,||Ah,|gen- tle Je-|su!|
w: Why art thou fro-|ward,|||||
V:2
 G4 d4 | c2 c2 B4 | !fermata!A8 || z8 | z8 | d4 d4 | _e4 d4 | e4 ^f2 f2 | g2 z2 z4 | z2 d2 c2 B2 | %10
w: Ah, _|gen- tle Je-|su.|||I, a|sin- ner,|that oft doth|fall.|Mer- cy, _|
w: ||||||||||
 A2 G2 c2 A2 | G2 z2 z4 | z2 d3 d c2 | A2 B2 B2 A2 | z8 | z8 | d2 f2 ff c2 | d2 z A AA A2 | %18
w: Lord, of thee I|crave.|Yea, my Ma-|ker I call thee.|||And think on this les-|son that now I teach|
w: ||||||||
 B3 A/G/ A2 dd | AB A2 f4- | f2 f2 e3 d/c/ | d8 | !fermata![=Bd]8 |: z8 | z8 | z8 | (f2 f)f f2 d2 | %27
w: thee. _ _ _ Ah I|will, I will gen-|* tle Je- * *||su.||||1.Suf- * fered death to|
w: ||||||||2.Look on the well and|
 c2 B2 (A2 A2) | G4 z2 f2 | c2 f2 g2 g2 | a3 g a2 d2 | g2 z2 z4 | z8 | z4 z2 g2 | e2 c2 d2 (BB) | %35
w: pay thy ran _|som; For-|sake thy sin, man,|for the love of|me.||To|con- trite hearts I do|
w: have com- pas- si|on; The|crown of thorn, the|spear, the nai- les|three,||My|heart ri- ven for _|
 d2 d2 c2 _e2 | g2 a/g/ f/e/ f2 f2 | a2 g2 f2 e2 | z8 | z4 d2 dd | f2 g2 e2 ga | f2 c2 d4 | %42
w: re- mis- si- *|* * * * * on; Be|not des- pai- red,||Gain ghost- ly|en'- mies think on my|pas- si- on;|
w: thy re- demp- ti|on. _ _ _ _ _ Let|now us twain _||Love for love|by just con- ven- ti-|on; _ _|
 g2 f2 e2 d2 | G2 z2 z4 | z8 | G4 d4 | c2 c2 B4 | !fermata!A8 :| %48
w: Why art thou fro-|ward,||Ah, _|gen- tle Je-|su!|
w: Why art thou fro-|ward,|||||
V:3
 z8 | z8 | z8 || B3 B A2 G2 | A2 ^F2 G4 | z8 | z8 | z8 | z2 B2 A2 G2 | F2 z2 z4 | z8 | %11
w: |||Who is that, that|does me call?||||What would´st thou|have?||
w: |||||||||||
 z2 d2 c2 A2 | G2 z2 z4 | z8 | B2 A2 A2 G2 | E2 D2 F2 G2 | B2 A2 AA A2 | B2 F2 FF F2 | G4 D3 D | %19
w: Why, lov'st thou|me?||Then leave thy sin,|or I nill thee,|And think on this les-|son that now I teach|thee. Ah I|
w: ||||||||
 DD D2 d4- | d2 d2 c3 B/A/ | B4 A4 | !fermata!G8 |: G4 B2 B2 | A2 A2 (B2 B)A | c2 c2 d4 | z8 | z8 | %28
w: will, I will, gen-|* tle Je- * *||su.|1.U- pon the|cross nai- led _ I|was for thee,|||
w: ||||2.My bloo- dy|woun- des down rai- ling|by this tree,|||
 z4 c4 | A2 d2 B2 G2 | z8 | z2 G2 (d2 d)d | c2 c2 B2 A2 | c2 c2 d2 G2 | A2 E2 G2 G2 | %35
w: For-|sake thy sin, man,||Be re- * pen-|tant, make plain con-|fes- si- on; To|con- trite hearts I|
w: The|crown of thorn, the||Pier- ced hand and|foot of in- dig-|na- ti- on, My|heart ri- ven for|
 A2 D2 _E2 E2 | D4 z2 d2 | c2 B2 d2 A2 | z8 | z4 A2 BB | A2 G2 G2 (c2 | c2) (AA) B4 | z8 | %43
w: do re- mis- si-|on; Be|not des- pai- red,||Gain ghost- ly|en'- mies think on|my pas- si- on;||
w: thy re- demp- ti-|on. Let|now us twain _||Love for love|by just con- ven-|* ti- * on;||
 z2 B2 A2 G2 | A2 ^F2 G2 G2 | z8 | z4 G4 | !fermata!D8 :| %48
w: sith I am|mer- ci- a- ble!||Je-|su!|
w: |||||
V:4
 z8 | z8 | z8 || G,,3 D, C,2 B,,2 | A,,2 A,,2 G,,4 | z8 | z8 | z8 | z2 G,2 F,2 _E,2 | D,2 z2 z4 | %10
w: |||Who is that, that|doth me call?||||What would´st thou|have?|
w: ||||||||||
 z8 | z2 D,2 E,2 ^F,2 | G,2 z2 z4 | z8 | G,2 A,2 F,2 G,2 | G,,2 B,,2 A,,2 G,,2 | G,2 D,2 D,D, F,2 | %17
w: |Why, lov´st thou|me?||Then leave thy sin,|or I nill thee,|And think on this les-|
w: |||||||
 B,,2 D,2 D,D, D,2 | G,,4 z4 | z8 | z8 | G,,4 D,4 | !fermata!G,,8 |: G,4 G,2 D,2 | F,2 D,2 G,3 F, | %25
w: son that now I teach|thee.|||Je- *|su.|1.U- pon the|cross nai- led I|
w: ||||||2.My bloo- dy|wounds down rai- ling|
 _E,2 E,2 D,4 | z8 | z8 | z4 F,4 | F,2 D,2 G,2 G,2 | z8 | z2 G,2 (B,2 B,)B, | A,2 E,2 G,2 D,2 | %33
w: was for thee,|||For-|sake thy sin, man,||Be re- * pen-|tant, make plain con-|
w: by this tree,|||The|crown of thorn, the||Pier- ced hand and|foot of in- dig-|
 _E,3 E, D,2 B,,2 | A,,3 A,, G,,2 z G, | D,2 F,2 C,3 C, | G,,4 D,4 | z8 | G,2 F,2 E,2 D,2 | %39
w: fes- si- on; To|con- trite hearts I|do re- mis- si-|on. _||for I am not|
w: na- ti- on, My|heart ri- ven for|thy re- demp- ti-|on. _||in this thing be|
 F,2 B,,B,, (D,2 D,)D, | D,2 G,,2 (C,2 C,)C, | F,3 F, B,,4 | z8 | z2 G,,2 C,3 C, | %44
w: ven- gea- ble; Gain ghost- ly|en'- mies think on my|pas- si- on;||sith I am|
w: trea- ta- ble: Love _ for|love by just _ con-|ven- ti- on;|||
 A,,2 A,,2 G,,2 G,,2 | z8 | z8 | z8 :| %48
w: mer- ci- a- ble!||||
w: ||||

